assets/img/plunks/plunk-eco-ed-4.svg

<svg width="60" height="60" viewBox="0 0 60 60" fill="none" xmlns="http://www.w3.org/2000/svg">
<path d="M52.4996 9.25782C52.467 8.80241 52.2713 8.37403 51.9485 8.05118C51.6256 7.72834 51.1972 7.53265 50.7418 7.5C32.859 6.44532 18.5387 11.8359 12.4215 21.9375C10.3042 25.3918 9.26011 29.397 9.42152 33.4453C9.56215 37.1719 10.6403 40.9688 12.6559 44.6953L36.1637 21.1641C36.528 20.8651 36.9905 20.7123 37.4612 20.7354C37.932 20.7585 38.3773 20.9559 38.7105 21.2891C39.0438 21.6224 39.2411 22.0677 39.2643 22.5384C39.2874 23.0091 39.1346 23.4716 38.8356 23.8359L15.3043 47.3438C19.0309 49.3594 22.8278 50.4375 26.5543 50.5781H27.3278C31.1151 50.5944 34.8321 49.5556 38.0621 47.5781C48.1637 41.4609 53.5543 27.1406 52.4996 9.25782Z" fill="#00A0E3"/>
<path d="M13.3826 45.9609C13.1248 45.5391 12.8904 45.1172 12.6561 44.6953L8.03887 49.2891C7.68678 49.6446 7.48926 50.1247 7.48926 50.625C7.48926 51.1253 7.68678 51.6054 8.03887 51.9609C8.39726 52.3075 8.87628 52.5012 9.37481 52.5012C9.87333 52.5012 10.3524 52.3075 10.7107 51.9609L15.3045 47.3438L14.0389 46.6172C13.7755 46.4481 13.5517 46.2243 13.3826 45.9609Z" fill="#00A0E3"/>
</svg>

<svg width="60" height="60" fill="none" xmlns="http://www.w3.org/2000/svg"><path d="M52.5 9.258A1.898 1.898 0 0050.742 7.5c-17.883-1.055-32.203 4.336-38.32 14.438a20.461 20.461 0 00-3 11.507c.14 3.727 1.218 7.524 3.234 11.25l23.508-23.53a1.898 1.898 0 012.672 2.67l-23.532 23.51c3.727 2.015 7.524 3.093 11.25 3.234h.774a20.39 20.39 0 0010.734-3C48.164 41.461 53.554 27.141 52.5 9.258z" fill="#00A0E3"/><path d="M13.383 45.96a34.747 34.747 0 01-.727-1.265L8.04 49.29a1.898 1.898 0 000 2.672 1.922 1.922 0 002.672 0l4.594-4.617-1.266-.727a2.178 2.178 0 01-.656-.656z" fill="#00A0E3"/></svg>
